!!!COM: Bach, Johann Sebastian
!!!CDT: 1685/3/-1750/7/28
!!!OPR@@DE: Das wohltemperierte Klavier
!!!OPR@EN: The Well-Tempered Clavier
!!!OTL: The Well-Tempered Clavier, Book 2, Fugue 6 in D minor
!!!SCT: BWV 875b
!!!parts: 3
**kern	**kern	**kern
*staff2	*staff1	*staff1
*clefF4	*clefG2	*clefG2
*k[b-]	*k[b-]	*k[b-]
*M4/4	*M4/4	*M4/4
*d:	*d:	*d:
*MM60	*MM60	*MM60
=1	=1	=1
1r	24dL	1r
.	24e	.
.	24f	.
.	24g	.
.	24f	.
.	24eJ	.
.	24fL	.
.	24g	.
.	24a	.
.	24b-	.
.	24a	.
.	24gJ	.
.	8aL	.
.	8ddJ	.
.	8cc#L	.
.	8ccnJ	.
=2	=2	=2
1r	8bnL	1r
.	8b-J	.
.	8aL	.
.	[8gJ	.
.	8g]L	.
.	8fJ	.
.	8eL	.
.	8aJ	.
=3	=3	=3
1r	8fL	24aL
.	.	24bn
.	.	24cc
.	8dJ	24dd
.	.	24cc
.	.	24bJ
.	8a	24ccL
.	.	24dd
.	.	24ee
.	8r	24ff
.	.	24ee
.	.	24ddJ
.	16r	8eeL
.	16BnL	.
.	16c	8aaJ
.	16dJ	.
.	16eL	8gg#L
.	16f#	.
.	16g	8ggnJ
.	16eJ	.
=4	=4	=4
1r	16aL	8ff#L
.	16g#	.
.	16a	8ffnJ
.	16bnJ	.
.	16ccL	8eeL
.	16f#	.
.	16b	[8ddJ
.	16aJ	.
.	16g#L	8dd]L
.	16eJ	.
.	4a	8ccJ
.	.	8bnL
.	[8gn	8eeJ
=5	=5	=5
1r	24g]L	8aL
.	24f	.
.	24e	.
.	24d	8bnJ
.	24e	.
.	24fJ	.
.	24eL	8ccL
.	24d	.
.	24c	.
.	24Bn	8g#J
.	24c	.
.	24dJ	.
.	8cL	24aL
.	.	24gn
.	.	24f
.	8c#J	24e
.	.	24f
.	.	24gJ
.	8dL	24fL
.	.	24e
.	.	24d
.	8GJ	24c#
.	.	24d
.	.	24eJ
=6	=6	=6
24DL	8FL	8dL
24E	.	.
24F	.	.
24G	8B-J	8c#J
24F	.	.
24EJ	.	.
24FL	8AL	8dL
24G	.	.
24A	.	.
24B-	8dJ	[8gJ
24A	.	.
24GJ	.	.
8AL	8c#L	16g]L
.	.	16e
8dJ	8dJ	16f
.	.	16gJ
8c#L	4e	16aL
.	.	16bn
8cnJ	.	16ccn
.	.	16aJ
=7	=7	=7
8BnL	4d	16ddL
.	.	16cc#
8B-J	.	16dd
.	.	16eeJ
8AL	4r	16ffL
.	.	16bn
[8GJ	.	16ee
.	.	16ddJ
8G]L	16r	16cc#L
.	16aL	16aJ
8FJ	16b-	4dd
.	16aJ	.
8EL	16gL	.
.	16b-	.
8AJ	16a	[8ccn
.	16gJ	.
=8	=8	=8
*	*strophe	*
*	*^	*
*	*S/sic	*S/ossia	*
16DL	16f#xxL	8f#xx	8cc]L
16d	16dxxJ	.	.
*	*v	*v	*
*	*Xstrophe	*
16e-	4g	8b-J
16dJ	.	.
16cL	.	4a
16e-	.	.
16d	[8fn	.
16cJ	.	.
16BnL	8f]L	16gL
16GJ	.	16gg
4c	8eJ	16aa
.	.	16ggJ
.	4d	16ffL
.	.	16aa
[8B-	.	16gg
.	.	16ffJ
=9	=9	=9
8B-]L	16cL	16eeL
.	16cc	16ccJ
8AJ	16dd	4ff
.	16ccJ	.
8GL	16b-L	.
.	16dd	.
8cJ	16cc	[8ee
.	16b-J	.
24FL	8aL	16ee]L
24G	.	.
.	.	8ff
24A	.	.
24B-	8gJ	.
24A	.	.
.	.	[16eeJ
24GJ	.	.
8AL	8fL	16ee]L
.	.	8dd
8AAJ	8eJ	.
.	.	16cc#J
=10	=10	=10
24DL	8fL	8ddL
24E	.	.
24F	.	.
24G	8c#J	8b-J
24F	.	.
24EJ	.	.
24FL	[4d	24aL
24G	.	24g
24A	.	24f
24B-	.	24e
24A	.	24f
24GJ	.	24gJ
8AL	8d]L	24fL
.	.	24e
.	.	24d
*	*clefF4	*
8GJ	8B-J	24c#
.	.	24d
.	.	24eJ
24FL	[4A	24dL
24E	.	24e
24D	.	24f
24C#	.	24g
24D	.	24f
24EJ	.	24eJ
=11	=11	=11
[4D	24A]L	24fL
.	24G	24g
.	24F	24a
.	24E	24b-
.	24F	24a
.	24GJ	24gJ
16D]L	8.FL	8aL
16Cn	.	.
8BB-J	.	8ddJ
.	16GJ	.
8.AAL	16r	8cc#L
.	16GL	.
.	8F#J	8ccnJ
16DJ	.	.
8.GGL	16r	8bnL
.	16FnL	.
.	8EJ	8b-J
16CJ	.	.
=12	=12	=12
8.FFL	16r	8aL
.	16E-L	.
.	8DJ	8aaJ
16BB-J	.	.
8.EEnL	16r	8gg#L
.	16DL	.
.	8C#J	8ggnJ
16AAJ	.	.
8DD	16DL	8ff#L
*	*clefG2	*
.	16a	.
4D	16b-	8ffnJ
.	16aJ	.
.	16gL	[4ee
.	16b-	.
8C#	16a	.
.	16gJ	.
=13	=13	=13
16DL	4f	8ee]
16A	.	.
16B-	.	4dd
16AJ	.	.
16GL	[4e	.
16B-	.	.
16A	.	8cc#
16GJ	.	.
4F	8e]	16r
*	*	*strophe
*	*	*^
*	*	*S/sic	*S/ossia
.	.	16aaL	16aL
.	4d	16bb-	16b-
.	.	16aaJ	16aJ
4E	.	16ggL	16gL
.	.	16bb-	16b-
.	8c#	16aa	16a
.	.	16ggJ	16gJ
=14	=14	=14	=14
8D	24dL	24ffL	8f
.	24e	24ee	.
.	24f	24dd	.
8r	24g	24cc#	8r
.	24f	24dd	.
.	24eJ	24eeJ	.
*	*	*v	*v
*	*	*Xstrophe
4r	24fL	24aL
.	24g	24bn
.	24a	24cc#
.	24b-	24dd
.	24a	24cc#
.	24gJ	24bnJ
4r	8aL	24cc#L
.	.	24dd
.	.	24ee
.	8ddJ	24ff
.	.	24ee
.	.	24ddJ
16r	8cc#L	8eeL
16BBnL	.	.
16C	8ccnJ	8aaJ
16DJ	.	.
=15	=15	=15
16EL	8bnL	8gg#L
16F#	.	.
16G	8b-J	8ggnJ
16EJ	.	.
16AL	[4a	8ff#L
16G#	.	.
16A	.	8ffnJ
16BnJ	.	.
16cL	8a]L	8ee
16F#	.	.
16B	16r	4dd
16AJ	16fnJ	.
16G#L	8.eL	.
16E	.	.
[8AJ	.	8cc
.	16eJ	.
=16	=16	=16
16A]L	8.dL	8bn
16D	.	.
16Gn	.	4b-
16FJ	16dJ	.
16EL	8.cL	.
16C	.	.
[8FJ	.	8a
.	16cJ	.
16F]L	8.BnL	8g#
16BBn	.	.
16E	.	4gn
16DJ	16B-J	.
16C#L	8A	.
16AA	.	.
[8DJ	8r	8fT
=17	=17	=17
8D]L	24aL	8e
.	24g	.
.	24f	.
8C#J	24e	8r
.	24f	.
.	24gJ	.
24DL	24fL	4r
24Cn	24e	.
24BB-	24d	.
24AA	24c#	.
24BB-	24d	.
24CJ	24eJ	.
24BB-L	8dL	4r
24AA	.	.
24GG	.	.
24FF#	8AJ	.
24GG	.	.
24AAJ	.	.
*	*	*Xbrackettup
!	!	!LO:TUP:r=4
8GGL	8B-L	24r
.	.	24dL
.	.	24e
8DDJ	8BnJ	24f
.	.	24e
.	.	24dJ
=18	=18	=18
!	!	!LO:TUP:r=4
8EE-L	8cL	24r
.	.	24b-L
.	.	24a
8EEnJ	8c#J	24g
.	.	24a
.	.	24b-J
!	!	!LO:TUP:r=4
8FFL	[4d	24r
.	.	24aL
.	.	24b-
8FF#J	.	24ccn
.	.	24b-
.	.	24aJ
24GGL	4d_	8b-L
24AA	.	.
24BB-	.	.
24C	.	8f#J
24BB-	.	.
24AAJ	.	.
24BB-L	8d]	24gL
24C	.	24a
24D	.	24b-
24E-	8r	24cc
24D	.	24b-
24CJ	.	24aJ
=19	=19	=19
8D	4r	24b-L
.	.	24cc
.	.	24dd
4G	.	24ee-
.	.	24dd
.	.	24cc#J
.	24ddL	[4dd
.	24ccn	.
.	24b-	.
8F#	24a	.
.	24b-	.
.	24ccJ	.
24GL	8b-L	8dd]
24Fn	.	.
24En	.	.
24D	8ddJ	8r
24E	.	.
24FJ	.	.
8EL	8gL	24ggL
.	.	24ff
.	.	24een
8GJ	8bnJ	24dd
.	.	24ee
.	.	24ffJ
=20	=20	=20
24cL	8cc	8eeL
24B-	.	.
24A	.	.
24G	8r	8ggJ
24A	.	.
24B-J	.	.
8AL	24ccL	8cc
.	24b-	.
.	24a	.
8cJ	24g	8r
.	24a	.
.	24b-J	.
24FL	8aL	4r
24E-	.	.
24D	.	.
24C	8ccJ	.
24D	.	.
24E-J	.	.
8DL	8fL	24ffL
.	.	24ee-
.	.	24dd
8FJ	8aJ	24cc
.	.	24dd
.	.	24ee-J
=21	=21	=21
24B-L	8b-L	4dd
24A	.	.
24G	.	.
24F#	[8aJ	.
24G	.	.
24AJ	.	.
24GL	2a_	24cc#L
24Fn	.	24dd
24E	.	24ee
24D	.	24ff
24E	.	24ee
24FJ	.	24ddJ
24EL	.	24eeL
24D	.	24ff
24C#	.	24gg
24BBn	.	24aa
24C#	.	24gg
24DJ	.	24ffJ
16C#L	16a]L	8ggL
16AA	16a	.
[8DJ	16b-	8ffJ
.	16aJ	.
=22	=22	=22
8D]L	16gL	[4ee
.	16b-	.
8C#J	16a	.
.	16gJ	.
8DL	8fL	16ee]L
.	.	16dd
[8GJ	8B-J	16ee-
.	.	16ddJ
8G]L	4A	16cc#L
.	.	16een
8F#J	.	16dd
.	.	16ccnJ
16GL	8GL	8bnL
16Fn	.	.
16E	[8gJ	8b-J
16DJ	.	.
=23	=23	=23
16C#L	8g]L	4.a
16E	.	.
16D	16f	.
16CnJ	16eJ	.
8BBnL	16dL	.
.	16f	.
8BB-J	16e	[8g
.	16dJ	.
16AAL	8c#	8g]L
16A	.	.
16B-	4d	8fJ
16AJ	.	.
16GL	.	4e
16B-	.	.
*	*clefF4	*
16A	8c#	.
16GJ	.	.
=24	=24	=24
16FL	16dL	4d
16A	16cn	.
16G	16B-	.
16FJ	16AJ	.
16EL	16GL	4r
16D	16B-	.
16C#	16A	.
16EJ	16GJ	.
16DL	16FL	2r
16Cn	16A	.
16BB-	16G	.
16AAJ	16FJ	.
16GGL	16EL	.
16BB-	16D	.
16AA	16C#	.
16GGJ	16EJ	.
=25	=25	=25
8FFL	24DL	2r
.	24E	.
.	24F	.
8BB-J	24G	.
.	24F	.
.	24EJ	.
24AAL	24FL	.
24GG	24G	.
24FF	24A	.
24EE	24B-	.
24FF	24A	.
24GGJ	24GJ	.
24FFL	[4A	24dL
24EE	.	24e
24DD	.	24f
24CC#	.	24g
24DD	.	24f
24EEJ	.	24eJ
8DD	24A]L	24fL
.	24G	24g
.	24F	24a
8r	24E	24b-
.	24F	24a
.	24GJ	24gJ
=26	=26	=26
16r	8FL	8aL
16EEL	.	.
*	*clefG2	*
16FF	8fJ	8ddJ
16GGJ	.	.
16AAL	8eL	8cc#L
16BBn	.	.
16C	[8aJ	8ccnJ
16AAJ	.	.
16DL	8.a]L	8bnL
16C#	.	.
16D	.	8b-J
16EJ	[16gJ	.
16FL	16g]L	8aL
16BBn	8f	.
16E	.	[8gJ
16DJ	16fJ	.
=27	=27	=27
16C#L	8eL	16g]L
16AA	.	16g
16D	[8dJ	16f
16GJ	.	16eJ
8AL	8d]L	8.emL
8AAJ	8c#J	.
.	.	16dJ
2DD;	2d;	2d;
==	==	==
*-	*-	*-
!!!OTA: Das wohltemperirte Clavier
!!!OCY: Deutschland
!!!PPP: Leipzig
!!!ODT: 1738//-1739//
!!!PDT: 1739//-1742//
!!!AFR: fuga; fugue
!!!AST: polyphony
!!!AMT: simple quadruple
!!!SCA: Bach-Werke-Verzeichnis
!!!YOR: Bach-Gesellschaft Ausgabe, Band 14
!!!YOO: Breitkopf und Härtel
!!!YOY: 1866
!!!YOE: Franz Kroll (1820-1877)
!!!AIN: cemba; clavi
!!!YEC: Copyright 1994, David Huron
!!!YEM: Rights to all derivative electronic formats reserved.
!!!ENC: David Huron
!!!END: 1986/11/30
!!!EED: David Huron
!!!YER: 1994/08/10
!!!EED2: Craig Stuart Sapp (notational niceties)
!!!EEV: 2020/09/19
!!!EFL: 30/48
